assets/icons/new_chat.svg

<?xml version="1.0" encoding="utf-8"?><!-- Uploaded to: SVG Repo, www.svgrepo.com, Generator: SVG Repo Mixer Tools -->
<svg width="800px" height="800px" viewBox="0 0 24 24" fill="none" xmlns="http://www.w3.org/2000/svg">
<path fill-rule="evenodd" clip-rule="evenodd" d="M12 3C7.85113 3 4 5.73396 4 10C4 11.5704 4.38842 12.7289 5.08252 13.6554C5.79003 14.5998 6.87746 15.3863 8.41627 16.0908L9.2326 16.4645L8.94868 17.3162C8.54129 18.5384 7.84997 19.6611 7.15156 20.5844C9.56467 19.8263 12.7167 18.6537 14.9453 17.1679C17.1551 15.6948 18.3969 14.5353 19.0991 13.455C19.7758 12.4139 20 11.371 20 10C20 5.73396 16.1489 3 12 3ZM2 10C2 4.26604 7.14887 1 12 1C16.8511 1 22 4.26604 22 10C22 11.629 21.7242 13.0861 20.7759 14.545C19.8531 15.9647 18.3449 17.3052 16.0547 18.8321C13.0781 20.8164 8.76589 22.2232 6.29772 22.9281C5.48665 23.1597 4.84055 22.6838 4.56243 22.1881C4.28848 21.6998 4.22087 20.9454 4.74413 20.3614C5.44439 19.5798 6.21203 18.5732 6.72616 17.4871C5.40034 16.7841 4.29326 15.9376 3.48189 14.8545C2.48785 13.5277 2 11.9296 2 10Z" fill="#0F0F0F"/>
<path d="M12 6C11.4477 6 11 6.44771 11 7V9H9C8.44772 9 8 9.44771 8 10C8 10.5523 8.44772 11 9 11H11V13C11 13.5523 11.4477 14 12 14C12.5523 14 13 13.5523 13 13V11H15C15.5523 11 16 10.5523 16 10C16 9.44772 15.5523 9 15 9H13V7C13 6.44771 12.5523 6 12 6Z" fill="#0F0F0F"/>
</svg>

<svg xmlns="http://www.w3.org/2000/svg" width="800" height="800" fill="none" viewBox="0 0 24 24"><path fill="#0F0F0F" fill-rule="evenodd" d="M12 3c-4.149 0-8 2.734-8 7 0 1.57.388 2.729 1.083 3.655.707.945 1.794 1.731 3.333 2.436l.817.373-.284.852c-.408 1.222-1.099 2.345-1.797 3.268 2.413-.758 5.565-1.93 7.793-3.416 2.21-1.473 3.452-2.633 4.154-3.713.677-1.041.901-2.084.901-3.455 0-4.266-3.851-7-8-7M2 10c0-5.734 5.149-9 10-9s10 3.266 10 9c0 1.629-.276 3.086-1.224 4.545-.923 1.42-2.431 2.76-4.721 4.287-2.977 1.984-7.29 3.391-9.757 4.096-.811.232-1.457-.244-1.736-.74-.274-.488-.341-1.243.182-1.827.7-.781 1.468-1.788 1.982-2.874-1.326-.703-2.433-1.55-3.244-2.632C2.488 13.528 2 11.93 2 10" clip-rule="evenodd"/><path fill="#0F0F0F" d="M12 6a1 1 0 0 0-1 1v2H9a1 1 0 1 0 0 2h2v2a1 1 0 1 0 2 0v-2h2a1 1 0 1 0 0-2h-2V7a1 1 0 0 0-1-1"/></svg>
